<?xml version="1.0" encoding="UTF-8"?>
<map version="1.10" tiledversion="1.12.2" orientation="isometric" renderorder="right-down" width="15" height="15" tilewidth="16" tileheight="8" infinite="0" nextlayerid="2" nextobjectid="1">
 <tileset firstgid="1" source="base.tsx"/>
 <layer id="1" name="Calque de Tuiles 1" width="15" height="15">
  <data encoding="csv">
1,4,4,1,1,1,1,1,1,1,1,1,1,1,1,
1,1,4,4,1,1,1,1,1,1,1,1,1,1,1,
1,1,1,4,4,4,4,4,4,1,1,1,1,1,1,
1,1,1,4,4,4,4,4,4,4,4,1,1,1,1,
1,1,1,1,4,4,4,4,4,4,4,4,1,1,1,
1,2,1,1,1,1,1,1,4,4,4,4,4,1,1,
1,2,2,1,1,1,1,1,1,4,4,4,4,1,1,
1,2,2,1,1,1,1,1,1,1,4,4,4,1,1,
1,2,2,2,1,1,1,1,1,1,1,4,4,1,1,
1,2,2,2,2,1,1,1,1,1,1,1,4,1,1,
1,2,3,3,2,2,2,2,1,1,1,1,4,4,1,
1,2,2,3,3,3,3,2,2,2,2,1,1,4,4,
1,2,2,3,3,3,2,2,2,2,1,1,1,1,1,
1,1,1,2,2,2,2,1,1,1,1,1,1,1,1,
1,1,1,1,1,1,1,1,1,1,1,1,1,1,1
</data>
 </layer>
</map>
